images/faq-order.svg

<svg width="62" height="48" viewBox="0 0 62 48" fill="none" xmlns="http://www.w3.org/2000/svg">
<path d="M24.9376 2.30704C24.9376 5.3069 25.614 6.87755 26.5569 7.7434C27.5225 8.63024 29.0665 9.06006 31.4728 9.06006V10.9525C28.8687 10.9525 26.9809 10.7873 25.278 9.22344C23.9631 8.01588 23.4538 5.96915 23.2299 3.6752C23.1787 3.15127 22.7451 2.74272 22.2186 2.74272H18.2384H16.2565C15.1901 2.74272 14.1678 3.16855 13.4168 3.92562L3.96759 13.4507C3.575 13.8464 3.58179 14.4868 3.98269 14.8741L8.93171 19.6557C9.34115 20.0513 9.99766 20.0258 10.3756 19.6C10.6152 19.33 10.8745 19.0381 11.1495 18.7292C12.5804 17.121 14.4361 15.0471 16.1295 13.1897C16.1846 13.1294 17.2322 12.0898 18.2663 12.9267C19.3004 13.7636 19.1241 15.1051 19.0832 15.9492C19.0424 16.7934 19.0319 17.8541 18.9471 18.999C18.7958 21.0412 18.2325 26.7964 18.0212 31.3341C17.8457 35.1066 17.0443 41.8961 17.008 44.3986C16.9992 45.0015 17.4457 45.3377 18.0487 45.3409L36.7009 45.4393V47.182H16.6494C15.6533 47.182 14.8714 46.3281 14.9588 45.3359C15.2222 41.8262 15.9743 34.3469 16.1846 29.8302C16.3954 25.3004 16.6325 21.5858 16.8776 18.999C17.1227 16.4121 17.3849 15.051 16.8776 15.2413C16.3703 15.4315 13.3788 19.177 12.231 20.4669C11.5172 21.2691 11.8343 20.882 11.4044 21.368C11.387 21.3877 11.3631 21.4139 11.3339 21.4454C10.5557 22.2873 9.1924 22.2997 8.37452 21.4963L2.13587 15.3684C1.33498 14.5817 1.3383 13.2901 2.14322 12.5076L12.5243 2.415C13.4576 1.50763 14.708 1 16.0096 1H23.6305C24.3524 1 24.9376 1.58518 24.9376 2.30704Z" fill="#36A6F2" stroke="#36A6F2" stroke-width="0.7"/>
<path d="M44.1626 31.3612C44.3381 35.1322 45.2475 41.8989 45.3216 44.3971C45.3395 44.9998 44.8963 45.337 44.2933 45.3402L25.6411 45.4385V47.1813H45.6926C46.6887 47.1813 47.4706 46.3274 47.3831 45.3351C47.1198 41.8255 46.2153 31.0788 46.1776 30.7349C46.1489 30.4729 45.8952 26.6882 45.776 24.9007C45.7415 24.3831 45.5908 23.9825 45.0721 23.9865C44.5239 23.9908 43.8003 24.4296 43.8265 24.9772C43.919 26.9128 44.1419 30.916 44.1626 31.3612Z" fill="#36A6F2" stroke="#36A6F2" stroke-width="0.7"/>
<path d="M37.4042 2.30704C37.4042 5.3069 36.7277 6.87755 35.7849 7.7434C34.8193 8.63024 33.2753 9.06006 30.869 9.06006V10.9525C33.4731 10.9525 35.3609 10.7873 37.0638 9.22344C38.3787 8.01588 38.888 5.96915 39.1119 3.6752C39.1631 3.15127 39.5967 2.74272 40.1232 2.74272H44.1034H46.0853C47.1517 2.74272 48.174 3.16855 48.925 3.92562L58.3742 13.4507C58.7668 13.8464 58.76 14.4868 58.3591 14.8741L53.4101 19.6557C53.0006 20.0513 52.3441 20.0258 51.9662 19.6C51.7266 19.33 51.4673 19.0381 51.1923 18.7292C49.7614 17.121 47.9057 15.0471 46.2123 13.1897C46.1572 13.1294 45.1096 12.0898 44.0755 12.9267C43.0413 13.7636 43.2177 15.1051 43.2586 15.9492C43.2994 16.7934 43.3829 18.6176 43.3947 18.999C43.395 19.009 43.3976 19.0481 43.4017 19.1054C43.4374 19.6106 43.8541 20.0011 44.3605 20.0005L44.4605 20.0003C44.9953 19.9993 45.3972 19.5314 45.3468 18.999C45.3319 18.8424 44.9569 15.051 45.4642 15.2413C45.9715 15.4315 48.963 19.177 50.1108 20.4669C50.8246 21.2691 50.5075 20.882 50.9374 21.368C50.9548 21.3877 50.9787 21.4139 51.0079 21.4454C51.7861 22.2873 53.1494 22.2997 53.9673 21.4963L60.2059 15.3684C61.0068 14.5817 61.0035 13.2901 60.1986 12.5076L49.8175 2.415C48.8842 1.50763 47.6338 1 46.3322 1H38.7113C37.9894 1 37.4042 1.58518 37.4042 2.30704Z" fill="#36A6F2" stroke="#36A6F2" stroke-width="0.7"/>
</svg>

<svg width="62" height="48" fill="none" xmlns="http://www.w3.org/2000/svg"><path d="M24.938 2.307c0 3 .676 4.57 1.619 5.436.966.887 2.51 1.317 4.916 1.317v1.893c-2.604 0-4.492-.166-6.195-1.73-1.315-1.207-1.824-3.254-2.048-5.548a1.024 1.024 0 00-1.011-.932h-5.963a4 4 0 00-2.84 1.183L3.969 13.45a1 1 0 00.015 1.423l4.949 4.782a1 1 0 001.444-.056c.24-.27.498-.562.774-.87a645.655 645.655 0 014.98-5.54c.055-.06 1.102-1.1 2.136-.263 1.034.837.858 2.178.817 3.022-.04.844-.051 1.905-.136 3.05-.151 2.042-.714 7.797-.926 12.335-.175 3.773-.977 10.562-1.013 13.065-.009.602.438.939 1.04.942l18.653.098v1.743H16.649a1.697 1.697 0 01-1.69-1.846c.263-3.51 1.015-10.99 1.226-15.506.21-4.53.448-8.244.693-10.831.245-2.587.507-3.948 0-3.758-.508.19-3.5 3.936-4.647 5.226-.714.802-.397.415-.827.901-.017.02-.04.046-.07.077-.778.842-2.142.855-2.96.051l-6.238-6.128a2 2 0 01.007-2.86L12.524 2.415A5 5 0 0116.01 1h7.62c.722 0 1.308.585 1.308 1.307z" fill="#36A6F2" stroke="#36A6F2" stroke-width=".7"/><path d="M44.163 31.361c.175 3.771 1.085 10.538 1.159 13.036.017.603-.426.94-1.029.943l-18.652.098v1.743h20.052c.996 0 1.778-.854 1.69-1.846-.263-3.51-1.168-14.256-1.205-14.6-.03-.262-.283-4.047-.402-5.834-.035-.518-.185-.918-.704-.915-.548.005-1.272.444-1.245.991.092 1.936.315 5.939.336 6.384zM37.404 2.307c0 3-.676 4.57-1.62 5.436-.965.887-2.509 1.317-4.915 1.317v1.893c2.604 0 4.492-.166 6.195-1.73 1.315-1.207 1.824-3.254 2.048-5.548a1.024 1.024 0 011.011-.932h5.962a4 4 0 012.84 1.183l9.45 9.525a1 1 0 01-.016 1.423l-4.949 4.782a1 1 0 01-1.444-.056l-.774-.87a645.655 645.655 0 00-4.98-5.54c-.055-.06-1.102-1.1-2.137-.263-1.034.837-.857 2.178-.816 3.022.04.844.124 2.669.136 3.05l.007.106a.96.96 0 00.959.895h.1A.902.902 0 0045.347 19c-.015-.157-.39-3.948.117-3.758.508.19 3.499 3.936 4.647 5.226.714.802.397.415.826.901l.07.077c.78.842 2.142.855 2.96.051l6.239-6.128a2 2 0 00-.007-2.86L49.818 2.415A5 5 0 0046.332 1h-7.62c-.723 0-1.308.585-1.308 1.307z" fill="#36A6F2" stroke="#36A6F2" stroke-width=".7"/></svg>
